24x24/apps/com.github.ronnydo.wammer.svg

<svg xmlns="http://www.w3.org/2000/svg" width="24" height="24" version="1.1">
 <path style="opacity:0.2" d="M 2.01075,12.209 A 10,10 0 0 0 2,12.5 10,10 0 0 0 12,22.5 10,10 0 0 0 22,12.5 10,10 0 0 0 21.9895,12.291 10,10 0 0 1 12,22 10,10 0 0 1 2.011,12.209 Z"/>
 <path style="fill:#c2352a" d="M 12,2 A 10,10 0 0 0 2,12 10,10 0 0 0 12,22 10,10 0 0 0 22,12 10,10 0 0 0 12,2 Z"/>
 <path style="fill:#ffc400" d="m 11,13.5 v 8.439453 a 10,10 0 0 0 1,0.06055 10,10 0 0 0 1,-0.0498 V 13.5 Z"/>
 <path style="opacity:0.2;fill:#f4f4f7" d="m 12,2 a 10,10 0 0 0 -10,10 10,10 0 0 0 0.01075,0.209 10,10 0 0 1 9.989,-9.709 10,10 0 0 1 9.9895,9.791 10,10 0 0 0 0.0105,-0.291 10,10 0 0 0 -10,-10 z"/>
 <path style="opacity:0.2" d="M 15.128906,6.241422 14.680664,7.1398595 A 6,6 0 0 1 18,12.500211 6,6 0 0 1 14.682617,17.865445 l 0.444336,0.888672 A 7,7 0 0 0 19,12.500211 7,7 0 0 0 15.128906,6.241422 Z m -6.255859,0.0049 A 7,7 0 0 0 5,12.500211 7,7 0 0 0 8.871094,18.759 L 9.319336,17.860562 A 6,6 0 0 1 6,12.500211 6,6 0 0 1 9.317383,7.1349765 Z M 14.235352,8.029525 13.78711,8.926009 A 4,4 0 0 1 16,12.500211 4,4 0 0 1 13.788086,16.076383 l 0.445313,0.890625 A 5,5 0 0 0 17,12.500211 5,5 0 0 0 14.235352,8.029508 Z m -4.4687505,0.0039 A 5,5 0 0 0 7,12.500211 5,5 0 0 0 9.7646485,16.970914 L 10.212891,16.07443 A 4,4 0 0 1 8,12.500211 4,4 0 0 1 10.211914,8.924039 Z"/>
 <path style="fill:#ffc400" d="M 15.128906,5.741211 14.680664,6.6396485 A 6,6 0 0 1 18,12 6,6 0 0 1 14.682617,17.365234 l 0.444336,0.888672 A 7,7 0 0 0 19,12 7,7 0 0 0 15.128906,5.741211 Z m -6.255859,0.0049 A 7,7 0 0 0 5,12 7,7 0 0 0 8.871094,18.258789 L 9.319336,17.360351 A 6,6 0 0 1 6,12 6,6 0 0 1 9.317383,6.6347655 Z M 14.235352,7.529314 13.78711,8.425798 A 4,4 0 0 1 16,12 4,4 0 0 1 13.788086,15.576172 l 0.445313,0.890625 A 5,5 0 0 0 17,12 5,5 0 0 0 14.235352,7.529297 Z m -4.4687505,0.0039 A 5,5 0 0 0 7,12 5,5 0 0 0 9.7646485,16.470703 L 10.212891,15.574219 A 4,4 0 0 1 8,12 4,4 0 0 1 10.211914,8.423828 Z"/>
 <circle style="opacity:0.2" cx="12" cy="12.5" r="2"/>
 <circle style="fill:#ffc400" cx="12" cy="12" r="2"/>
</svg>

<svg xmlns="http://www.w3.org/2000/svg" width="24" height="24"><path style="opacity:.2" d="M2.01 12.209A10 10 0 0 0 2 12.5a10 10 0 0 0 10 10 10 10 0 0 0 10-10 10 10 0 0 0-.01-.209A10 10 0 0 1 12 22a10 10 0 0 1-9.989-9.791z"/><path style="fill:#c2352a" d="M12 2A10 10 0 0 0 2 12a10 10 0 0 0 10 10 10 10 0 0 0 10-10A10 10 0 0 0 12 2z"/><path style="fill:#ffc400" d="M11 13.5v8.44a10 10 0 0 0 1 .06 10 10 0 0 0 1-.05V13.5z"/><path style="opacity:.2;fill:#f4f4f7" d="M12 2A10 10 0 0 0 2 12a10 10 0 0 0 .01.209A10 10 0 0 1 12 2.5a10 10 0 0 1 9.99 9.791A10 10 0 0 0 22 12 10 10 0 0 0 12 2z"/><path style="opacity:.2" d="m15.129 6.241-.448.899A6 6 0 0 1 18 12.5a6 6 0 0 1-3.317 5.365l.444.89A7 7 0 0 0 19 12.5a7 7 0 0 0-3.871-6.259zm-6.256.005A7 7 0 0 0 5 12.5a7 7 0 0 0 3.871 6.259l.448-.898A6 6 0 0 1 6 12.5a6 6 0 0 1 3.317-5.366zm5.362 1.784-.448.896A4 4 0 0 1 16 12.5a4 4 0 0 1-2.212 3.576l.445.891A5 5 0 0 0 17 12.5a5 5 0 0 0-2.765-4.47zm-4.468.003A5 5 0 0 0 7 12.5a5 5 0 0 0 2.765 4.47l.448-.896A4 4 0 0 1 8 12.5a4 4 0 0 1 2.212-3.576z"/><path style="fill:#ffc400" d="m15.129 5.741-.448.899A6 6 0 0 1 18 12a6 6 0 0 1-3.317 5.365l.444.889A7 7 0 0 0 19 12a7 7 0 0 0-3.871-6.259zm-6.256.005A7 7 0 0 0 5 12a7 7 0 0 0 3.871 6.259l.448-.899A6 6 0 0 1 6 12a6 6 0 0 1 3.317-5.365zm5.362 1.783-.448.897A4 4 0 0 1 16 12a4 4 0 0 1-2.212 3.576l.445.89A5 5 0 0 0 17 12a5 5 0 0 0-2.765-4.47zm-4.468.004A5 5 0 0 0 7 12a5 5 0 0 0 2.765 4.47l.448-.896A4 4 0 0 1 8 12a4 4 0 0 1 2.212-3.576z"/><circle style="opacity:.2" cx="12" cy="12.5" r="2"/><circle style="fill:#ffc400" cx="12" cy="12" r="2"/></svg>
